!!!COM: Scriabin, Alexander
!!!OTL: Prelude
!!!OPR: 7 Preludes
!!!OPS: 17
!!!ONM: 4
!!!ODT: 1895
!!!AGN: Prelude
**kern	**kern
*staff2	*staff1
*clefF4	*clefG2
*k[b-e-a-d-g-]	*k[b-e-a-d-g-]
*b-:	*b-:
*M3/2	*M3/2
8BB-	8r
=1	=1
*	*^
8CL	4raa	4rc
8D-	.	.
8B-	8b-	8d- 8f
8E-J	8raa	8rc
8FL	4raa	4rc
8G-	.	.
8d-	4b-	4e- 4g-
8cJ	.	.
8B-L	4dd-	[4e- 4g-
8An	.	.
8g-	8cc	8e-]
8BB-J	8raa	8rc
=2	=2	=2
8CL	4raa	4rc
8D-	.	.
8B-	8b-	8d- 8g-
8E-J	8raa	8rc
8FL	4raa	4rc
8G-	.	.
8d-	4b-	4e- 4g-
8cJ	.	.
8B-L	4ff	4g- 4dd-
8An	.	.
8g-	4cc 4ee-	4rc
8AJ	.	.
=3	=3	=3
8B-L	4dd-	4f 4b-
8F	.	.
8Bn	4ee-	4g- 4an
8cJ	.	.
8e-L	2gg-	2a 2cc
8dn	.	.
8f	.	.
8e-J	.	.
8d-XL	4ff	2g- 2b-
8c	.	.
8d-	4dd-	.
8B-XJ	.	.
=4	=4	=4
*	*	*^
8A-L	1cc	1b-	2en/
8Gn	.	.	.
8B-	.	.	.
8A-J	.	.	.
8GL	.	.	1e-X
8F#X	.	.	.
8A-	.	.	.
8GJ	.	.	.
8G-XL	4dd-	2an	.
8Fn	.	.	.
8G-	4cc	.	.
8BB-J	.	.	.
*	*	*v	*v
=5	=5	=5
8CL	4raa	4rc
8D-	.	.
8B-	8b-	8d- 8g-
8E-J	8raa	8rc
8FL	4raa	4rc
8G-	.	.
8d-	4b-	4e- 4g-
8cJ	.	.
8B-L	4dd-	[4e- 4g-
8An	.	.
8g-	4cc	4e-]
8E-J	.	.
=6	=6	=6
8FL	4raa	4rc
8G-	.	.
8e-	4ee-	4g- 4cc-X
8A-J	.	.
8B-L	4raa	4rc
8c-X	.	.
8g-	4ee-	4a- 4cc-
8fJ	.	.
8e-L	4gg-	2a- 2cc-
8dn	.	.
*clefG2	*	*
8cc-X	4ff	.
8dnJ	.	.
*	*v	*v
=7	=7
8e-L	4b- 4ee- 4gg-
8B-	.
8en	4cc-X 4ddn 4aa-
8fJ	.
8a-L	2dd 2ff 2ccc-X
8gn	.
8b-	.
8a-J	.
8g-XL	4ee- 4bb-
8f	.
8g-	4r
8A-J	.
=8	=8
8dnL	4a- 4cc-X 4ff
8A-	.
8d	4b-- 4ccn 4gg-
8e-J	.
8g-L	2cc 2ee- 2bb--
8A-	.
8a-	.
8g-J	.
8f-XL	4dd- 4aa-
8e-	.
8f-	4r
8G-J	.
=9	=9
*^	*^
8cL	2rc	4ee-	4g- 4b--
8G-	.	.	.
8c	.	4ff-X	4g- 4b-X
8d-J	.	.	.
8f-XL	8rc	4aa-	2b- 2dd-
8G-	4.G-	.	.
8g-	.	8bb-L	.
8f-J	.	8aa-J	.
8f-L	2rc	4.gg-	4.cc-X
8e-	.	.	.
8G-	.	.	.
*clefF4	*	*	*
8GG-J	.	8raa	8rc
*v	*v	*	*
=10	=10	=10
8CnL	4e-	4B--
8GG-	.	.
8C	4f-X	[4B-X
8D-J	.	.
8F-XL	4a-	2B-] 2d-
8GG-	.	.
8G-	8b-L	.
8F-J	8a-J	.
8F-L	4.g-	4.c-X
8E-	.	.
8GG-	.	.
8GG-J	8raa	8rc
=11	=11	=11
8D-L	4en	2B-
8C	.	.
8D-	4e	.
8FFJ	.	.
8D-L	[2f	1B-
8C	.	.
8D-	.	.
8FJ	.	.
8A-L	8fL]	.
8G-	8e-XJ	.
8F	4d-	.
8FFJ	.	.
=12	=12	=12
*	*	*^
8D-L	2raa	4e-	[2An/ [2d-
8G-	.	.	.
8F	.	8fL	.
[8E-J	.	[8g-J	.
2E-]	2dd-	2g-]	2A/] 2d-]
2FF 2E- 2An	[2d- 2f 2an [2dd-	2rc	2r
*	*v	*v	*v
=13	=13
[16qqBBB-/LL	4qd-/] 4qdd-_
[16qqFF/	[16qqd-/LL
[16qqD-/	[16qqf/
[16qqB-/JJ	[16qqb-/JJ
1.BBBB-] 1.BBB-] 1.FF] 1.D-] 1.B-]	1.d-] 1.f] 1.b-] 1.dd-]
==	==
*-	*-
!!!system-decoration: {(*)}
!!!ENC: Bryan Jacob Bell
!!!END: November 2021 to April 2022
!!!PED: Konstantin Igumnov and Yakov Milstein
!!!PTL: A.N. Skryabin: Polnoe sobranie sochinenii dlia fortepiano (Muzgiz)
